X: 848
T: Gizli Aşk Bu
C: Zeynettin Maraş
O: Turkey
F: http://compmusic.upf.edu/node/140
N: nihavent--sarki--duyek--gizli_ask--zeynettin_maras
N: makam= nihavent
N: form= sarki
N: usul= duyek = 8/4
M: 8/4
L: 1/16
K: C _B _e  
Q: 1/4=168
%%MIDI tuningsystem comma53
z2 D2 E2 ^F2 G8  | z2 ^FG A2 GA B8  | \
w:   |   | 
z2 ^F2 G2 A2 B8  | z2 AB c2 Bc d8  | 
w:   |   | 
z2 d2 e3d c2 cd e2 cd  | e2 c2 d3c B2 Bc d2 Bc  | \
w:   |   | 
c2 B2 c3B cB A6  | 
w:   | 
z2 d2 B2 A2 G8  | z2 D2 E2 ^F2 G8  | \
w:   |   | 
z2 ^FG A2 GA B8  | z2 ^F2 G2 A2 B8  | 
w:   |   | 
z2 AB c2 Bc d8  | z2 d2 e3d c2 cd e2 cd  | \
w:   |   | 
e2 c2 d3c B2 Bc d2 Bc  | 
w:   | 
c2 B2 c3B cB A6  | z2 d2 B2 A2 G8  | \
w:   |   | 
z2 G4 A2 B4 G4  | z2 A4 B2 c3B A4  | 
w:  Giz li  aşk  bu   |  söy le ye *  mem   | 
z2 d4 d2 ^c4 d4  | z2 B4 A2 G8  | z2 G4 A2 B4 G4  | \
w:  der di mi  hiç   |  kim se ye    |  Giz li  aşk  bu   | 
z2 A4 B2 c3B A4  | z2 d4 d2 ^c4 d4  | 
w:  söy le ye *  mem   |  der di mi  hiç   | 
z2 B4 A2 G8  | z2 c4 d2 e3d c4  | z2 d4 =e2 f3_e d4  | \
w:  kim se ye    |  Zev ke  ve *  da   |  neş e ye  *  de   | 
g2 g6 f4 a4  | f2 f4 ed d8  | 
w:  ve da  ar tık   |  *  her  şe *  ye    | 
z2 c4 d2 e3d c4  | z2 d4 =e2 f3_e d4  | \
w:  Zev ke  ve *  da   |  neş e ye  *  de   | 
g2 g6 f4 a4  | f2 f4 ed d8  | 
w:  ve da  ar tık   |  *  her  şe *  ye    | 
z2 g4 g2 g4 g4  | g2 a2 b2 c'2 a3g f4  | \
w:  Ar zu lar  bir   |  *  bir  ha yal_ ol *  du    | 
c2 f6 f4 f4  | z2 a2 g2 f2 e3d e4  | 
w:  Ba ha rı mın   |  gül le ri  sol *  du    | 
e3d c4 c2 f4 ed  | d3c B4 B2 e4 dc  | \
w:  Gön *  lüm SAZ  |  hic *  ran  SAZ  | 
c3B A4 A2 d2 c2 B2  | 
w:  has *  ret  SAZ  | 
A2 d4 c2 B3A G4  | z2 g4 g2 g4 g4  | \
w:  *  gam la  dol *  du    |  Ar zu lar  bir   | 
g2 a2 b2 c'2 a3g f4  | c2 f6 f4 f4  | 
w:  *  bir  ha yal_ ol *  du    |  Ba ha rı mın   | 
z2 a2 g2 f2 e3d e4  | e3d c4 c2 f4 ed  | \
w:  gül le ri  sol *  du    |  Gön *  lüm SAZ  | 
d3c B4 B2 e4 dc  | 
w:  hic *  ran  SAZ  | 
c3B A4 A2 d2 c2 B2  | A2 d4 c2 B3A G4  | \
w:  has *  ret  SAZ  |  *  gam la  dol *  du    | 
z2 D2 E2 ^F2 G8  | z2 ^FG A2 GA B8  | 
w:   |   | 
z2 ^F2 G2 A2 B8  | z2 AB c2 Bc d8  | \
w:   |   | 
z2 d2 e3d c2 cd e2 cd  | 
w:   | 
e2 c2 d3c B2 Bc d2 Bc  | c2 B2 c3B cB A6  | \
w:   |   | 
z2 d2 B2 A2 G8  | 
w:   | 
z2 D2 E2 ^F2 G8  | z2 ^FG A2 GA B8  | \
w:   |   | 
z2 ^F2 G2 A2 B8  | z2 AB c2 Bc d8  | 
w:   |   | 
z2 d2 e3d c2 cd e2 cd  | e2 c2 d3c B2 Bc d2 Bc  | \
w:   |   | 
c2 B2 c3B cB A6  | 
w:   | 
z2 d2 B2 A2 G8  | z2 G4 A2 B4 G4  | z2 A4 B2 c3B A4  | \
w:   |  Giz li  aşk  bu   |  söy le ye *  mem   | 
z2 d4 d2 ^c4 d4  | 
w:  der di mi  hiç   | 
z2 B4 A2 G8  | z2 G4 A2 B4 G4  | z2 A4 B2 c3B A4  | \
w:  kim se ye    |  Giz li  aşk  bu   |  söy le ye *  mem   | 
z2 d4 d2 ^c4 d4  | z2 B4 A2 G8  | 
w:  der di mi  hiç   |  kim se ye    | 
z2 c4 d2 e3d c4  | z2 d4 =e2 f3_e d4  | \
w:  Zev ke  ve *  da   |  neş e ye  *  de   | 
g2 g6 f4 a4  | f2 f4 ed d8  | 
w:  ve da  ar tık   |  *  her  şe *  ye    | 
z2 c4 d2 e3d c4  | z2 d4 =e2 f3_e d4  | \
w:  Zev ke  ve *  da   |  neş e ye  *  de   | 
g2 g6 f4 a4  | f2 f4 ed d8  | 
w:  ve da  ar tık   |  *  her  şe *  ye    | 
z2 g4 g2 g4 g4  | g2 a2 b2 c'2 a3g f4  | \
w:  Ar zu lar  bir   |  *  bir  ha yal_ ol *  du    | 
c2 f6 f4 f4  | z2 a2 g2 f2 e3d e4  | 
w:  Ba ha rı mın   |  gül le ri  sol *  du    | 
e3d c4 c2 f4 ed  | d3c B4 B2 e4 dc  | \
w:  Gön *  lüm SAZ  |  hic *  ran  SAZ  | 
c3B A4 A2 d2 c2 B2  | 
w:  has *  ret  SAZ  | 
A2 d4 c2 B3A G4  | z2 g4 g2 g4 g4  | \
w:  *  gam la  dol *  du    |  Ar zu lar  bir   | 
g2 a2 b2 c'2 a3g f4  | c2 f6 f4 f4  | 
w:  *  bir  ha yal_ ol *  du    |  Ba ha rı mın   | 
z2 a2 g2 f2 e3d e4  | e3d c4 c2 f4 ed  | \
w:  gül le ri  sol *  du    |  Gön *  lüm SAZ  | 
d3c B4 B2 e4 dc  | 
w:  hic *  ran  SAZ  | 
c3B A4 A2 d2 c2 B2  | A2 d4 c2 B3A G4  | |


